img/icones/bikcraft.svg

<svg width="136" height="32" fill="none" xmlns="http://www.w3.org/2000/svg">
  <path d="M5.04 13.196c.648-.96 1.536-1.74 2.664-2.34 1.152-.6 2.46-.9 3.924-.9 1.704 0 3.24.42 4.608 1.26 1.392.84 2.484 2.04 3.276 3.6.816 1.536 1.224 3.324 1.224 5.364s-.408 3.852-1.224 5.436c-.792 1.56-1.884 2.772-3.276 3.636-1.368.864-2.904 1.296-4.608 1.296-1.488 0-2.796-.288-3.924-.864-1.104-.6-1.992-1.368-2.664-2.304v2.844H0V3.584h5.04v9.612Zm10.548 6.984c0-1.2-.252-2.232-.756-3.096-.48-.888-1.128-1.56-1.944-2.016a5.104 5.104 0 0 0-2.592-.684c-.912 0-1.776.24-2.592.72-.792.456-1.44 1.128-1.944 2.016-.48.888-.72 1.932-.72 3.132 0 1.2.24 2.244.72 3.132.504.888 1.152 1.572 1.944 2.052.816.456 1.68.684 2.592.684.936 0 1.8-.24 2.592-.72.816-.48 1.464-1.164 1.944-2.052.504-.888.756-1.944.756-3.168ZM26.954 7.904c-.888 0-1.632-.276-2.232-.828-.576-.576-.864-1.284-.864-2.124 0-.84.288-1.536.864-2.088.6-.576 1.344-.864 2.232-.864.888 0 1.62.288 2.196.864.6.552.9 1.248.9 2.088 0 .84-.3 1.548-.9 2.124-.576.552-1.308.828-2.196.828Zm2.484 2.376v19.944h-5.04V10.28h5.04Zm16.788 19.944-6.768-8.496v8.496h-5.04V3.584h5.04V18.74l6.696-8.46h6.552l-8.784 10.008 8.856 9.936h-6.552Zm6.919-9.972c0-2.064.42-3.864 1.26-5.4.84-1.56 2.004-2.76 3.492-3.6 1.488-.864 3.192-1.296 5.112-1.296 2.472 0 4.512.624 6.12 1.872 1.632 1.224 2.724 2.952 3.276 5.184H66.97c-.288-.864-.78-1.536-1.476-2.016-.672-.504-1.512-.756-2.52-.756-1.44 0-2.58.528-3.42 1.584-.84 1.032-1.26 2.508-1.26 4.428 0 1.896.42 3.372 1.26 4.428.84 1.032 1.98 1.548 3.42 1.548 2.04 0 3.372-.912 3.996-2.736h5.436c-.552 2.16-1.644 3.876-3.276 5.148-1.632 1.272-3.672 1.908-6.12 1.908-1.92 0-3.624-.42-5.112-1.26a9.161 9.161 0 0 1-3.492-3.6c-.84-1.56-1.26-3.372-1.26-5.436h-.001Zm26.993-6.876a7.133 7.133 0 0 1 2.52-2.484c1.056-.6 2.256-.9 3.6-.9v5.292h-1.332c-1.584 0-2.784.372-3.6 1.116-.792.744-1.188 2.04-1.188 3.888v9.936h-5.04V10.28h5.04v3.096Zm21.574 14.004c-.552.912-1.452 1.68-2.7 2.304-1.248.6-2.592.9-4.032.9-1.248 0-2.376-.252-3.384-.756s-1.8-1.2-2.376-2.088c-.576-.888-.864-1.908-.864-3.06 0-1.848.684-3.36 2.052-4.536 1.392-1.176 3.468-1.764 6.228-1.764h5.076c-.048-1.272-.42-2.28-1.116-3.024-.672-.768-1.608-1.152-2.808-1.152-1.056 0-1.932.288-2.628.864-.696.552-1.14 1.332-1.332 2.34h-5.04c.24-1.44.756-2.724 1.548-3.852a8.143 8.143 0 0 1 3.168-2.664c1.32-.648 2.796-.972 4.428-.972 1.68 0 3.192.348 4.536 1.044a7.7 7.7 0 0 1 3.204 2.988c.768 1.296 1.152 2.82 1.152 4.572v11.7h-5.112V27.38Zm-5.256-.864c.84 0 1.656-.18 2.448-.54.816-.36 1.488-.9 2.016-1.62.528-.72.792-1.572.792-2.556v-.144h-4.788c-1.152 0-2.016.228-2.592.684-.552.456-.828 1.056-.828 1.8 0 .72.252 1.296.756 1.728.528.432 1.26.648 2.196.648Zm20.997-12.096v15.804h-5.112V14.42h-2.268v-4.14h2.268V9.272c0-2.448.696-4.248 2.088-5.4 1.392-1.152 3.492-1.692 6.3-1.62V6.5c-1.224-.024-2.076.18-2.556.612s-.72 1.212-.72 2.34v.828h6.55V5.348h5.076v4.932h4.464v4.14h-4.464v9.648c0 .672.156 1.164.468 1.476.336.288.888.432 1.656.432h2.34v4.248h-3.168c-4.248 0-6.372-2.064-6.372-6.192V14.42h-6.55Z" fill="#fff"/>
</svg>

<svg width="136" height="32" viewBox="0 0 136 32" fill="none" xmlns="http://www.w3.org/2000/svg">
  <path d="M5.04 13.196C5.688 12.236 6.576 11.456 7.704 10.856C8.856 10.256 10.164 9.956 11.628 9.956C13.332 9.956 14.868 10.376 16.236 11.216C17.628 12.056 18.72 13.256 19.512 14.816C20.328 16.352 20.736 18.14 20.736 20.18C20.736 22.22 20.328 24.032 19.512 25.616C18.72 27.176 17.628 28.388 16.236 29.252C14.868 30.116 13.332 30.548 11.628 30.548C10.14 30.548 8.832 30.26 7.704 29.684C6.6 29.084 5.712 28.316 5.04 27.38V30.224H0V3.584H5.04V13.196ZM15.588 20.18C15.588 18.98 15.336 17.948 14.832 17.084C14.352 16.196 13.704 15.524 12.888 15.068C12.1004 14.6131 11.2055 14.377 10.296 14.384C9.384 14.384 8.52 14.624 7.704 15.104C6.912 15.56 6.264 16.232 5.76 17.12C5.28 18.008 5.04 19.052 5.04 20.252C5.04 21.452 5.28 22.496 5.76 23.384C6.264 24.272 6.912 24.956 7.704 25.436C8.52 25.892 9.384 26.12 10.296 26.12C11.232 26.12 12.096 25.88 12.888 25.4C13.704 24.92 14.352 24.236 14.832 23.348C15.336 22.46 15.588 21.404 15.588 20.18V20.18ZM26.954 7.904C26.066 7.904 25.322 7.628 24.722 7.076C24.146 6.5 23.858 5.792 23.858 4.952C23.858 4.112 24.146 3.416 24.722 2.864C25.322 2.288 26.066 2 26.954 2C27.842 2 28.574 2.288 29.15 2.864C29.75 3.416 30.05 4.112 30.05 4.952C30.05 5.792 29.75 6.5 29.15 7.076C28.574 7.628 27.842 7.904 26.954 7.904V7.904ZM29.438 10.28V30.224H24.398V10.28H29.438ZM46.226 30.224L39.458 21.728V30.224H34.418V3.584H39.458V18.74L46.154 10.28H52.706L43.922 20.288L52.778 30.224H46.226V30.224ZM53.145 20.252C53.145 18.188 53.565 16.388 54.405 14.852C55.245 13.292 56.409 12.092 57.897 11.252C59.385 10.388 61.089 9.956 63.009 9.956C65.481 9.956 67.521 10.58 69.129 11.828C70.761 13.052 71.853 14.78 72.405 17.012H66.97C66.682 16.148 66.19 15.476 65.494 14.996C64.822 14.492 63.982 14.24 62.974 14.24C61.534 14.24 60.394 14.768 59.554 15.824C58.714 16.856 58.294 18.332 58.294 20.252C58.294 22.148 58.714 23.624 59.554 24.68C60.394 25.712 61.534 26.228 62.974 26.228C65.014 26.228 66.346 25.316 66.97 23.492H72.406C71.854 25.652 70.762 27.368 69.13 28.64C67.498 29.912 65.458 30.548 63.01 30.548C61.09 30.548 59.386 30.128 57.898 29.288C56.4218 28.4362 55.2125 27.1895 54.406 25.688C53.566 24.128 53.146 22.316 53.146 20.252H53.145ZM80.138 13.376C80.756 12.3495 81.6227 11.4952 82.658 10.892C83.714 10.292 84.914 9.992 86.258 9.992V15.284H84.926C83.342 15.284 82.142 15.656 81.326 16.4C80.534 17.144 80.138 18.44 80.138 20.288V30.224H75.098V10.28H80.138V13.376ZM101.712 27.38C101.16 28.292 100.26 29.06 99.012 29.684C97.764 30.284 96.42 30.584 94.98 30.584C93.732 30.584 92.604 30.332 91.596 29.828C90.588 29.324 89.796 28.628 89.22 27.74C88.644 26.852 88.356 25.832 88.356 24.68C88.356 22.832 89.04 21.32 90.408 20.144C91.8 18.968 93.876 18.38 96.636 18.38H101.712C101.664 17.108 101.292 16.1 100.596 15.356C99.924 14.588 98.988 14.204 97.788 14.204C96.732 14.204 95.856 14.492 95.16 15.068C94.464 15.62 94.02 16.4 93.828 17.408H88.788C89.028 15.968 89.544 14.684 90.336 13.556C91.1449 12.41 92.2362 11.4923 93.504 10.892C94.824 10.244 96.3 9.92 97.932 9.92C99.612 9.92 101.124 10.268 102.468 10.964C103.803 11.6289 104.916 12.6669 105.672 13.952C106.44 15.248 106.824 16.772 106.824 18.524V30.224H101.712V27.38V27.38ZM96.456 26.516C97.296 26.516 98.112 26.336 98.904 25.976C99.72 25.616 100.392 25.076 100.92 24.356C101.448 23.636 101.712 22.784 101.712 21.8V21.656H96.924C95.772 21.656 94.908 21.884 94.332 22.34C93.78 22.796 93.504 23.396 93.504 24.14C93.504 24.86 93.756 25.436 94.26 25.868C94.788 26.3 95.52 26.516 96.456 26.516V26.516ZM117.453 14.42V30.224H112.341V14.42H110.073V10.28H112.341V9.272C112.341 6.824 113.037 5.024 114.429 3.872C115.821 2.72 117.921 2.18 120.729 2.252V6.5C119.505 6.476 118.653 6.68 118.173 7.112C117.693 7.544 117.453 8.324 117.453 9.452V10.28H124.003V5.348H129.079V10.28H133.543V14.42H129.079V24.068C129.079 24.74 129.235 25.232 129.547 25.544C129.883 25.832 130.435 25.976 131.203 25.976H133.543V30.224H130.375C126.127 30.224 124.003 28.16 124.003 24.032V14.42H117.453Z" fill="black"/>
</svg>
